build/category/AlertOutline.svg

<svg xmlns="http://www.w3.org/2000/svg" fill="none" viewBox="0 0 24 24" focusable="false"><path d="M0 0H24V24H0z"/><path fill="#74767B" fill-rule="evenodd" d="M12.7193 1.21945L12.7193 3.1011C12.7193 3.49844 12.3972 3.82055 11.9999 3.82055C11.6025 3.82055 11.2804 3.49844 11.2804 3.1011L11.2804 1.21945C11.2804 0.82211 11.6025 0.5 11.9999 0.5C12.3972 0.5 12.7193 0.82211 12.7193 1.21945ZM3.86685 3.86871C4.14781 3.58775 4.60335 3.58775 4.88431 3.86871L6.21483 5.19924C6.35532 5.33972 6.42556 5.52384 6.42556 5.70797C6.42556 5.89209 6.35532 6.07622 6.21483 6.2167C5.93387 6.49766 5.47834 6.49766 5.19737 6.2167L3.86685 4.88617C3.72637 4.74569 3.65613 4.56157 3.65613 4.37744C3.65613 4.19332 3.72637 4.0092 3.86685 3.86871ZM17.5742 5.70801C17.5742 5.52388 17.6444 5.33976 17.7849 5.19928L19.1154 3.86875C19.3964 3.58779 19.8519 3.58779 20.1329 3.86875C20.2733 4.00924 20.3436 4.19336 20.3436 4.37748C20.3436 4.56161 20.2733 4.74573 20.1329 4.88621L18.8023 6.21674C18.5214 6.4977 18.0658 6.4977 17.7849 6.21674C17.6444 6.07626 17.5742 5.89213 17.5742 5.70801ZM4.99988 12C4.99988 8.13401 8.13388 5 11.9999 5C15.8659 5 18.9999 8.13401 18.9999 12L18.9999 17.7C18.9999 18.0866 18.6865 18.4 18.2999 18.4L5.69988 18.4C5.31328 18.4 4.99988 18.0866 4.99988 17.7L4.99988 12ZM17.6999 17.1L17.6999 12C17.6999 8.85198 15.1479 6.3 11.9999 6.3C8.85186 6.3 6.29988 8.85198 6.29988 12L6.29988 17.1L17.6999 17.1ZM12.6499 12.0993C12.6499 12.4583 12.3589 12.7493 11.9999 12.7493C11.6409 12.7493 11.3499 12.4583 11.3499 12.0993L11.3499 9.04688C11.3499 8.68789 11.6409 8.39688 11.9999 8.39688C12.3589 8.39688 12.6499 8.68789 12.6499 9.04688L12.6499 12.0993ZM0.498047 12.0017C0.498047 11.6043 0.820157 11.2822 1.2175 11.2822L3.09914 11.2822C3.49649 11.2822 3.8186 11.6043 3.8186 12.0017C3.8186 12.399 3.49649 12.7211 3.09914 12.7211L1.2175 12.7211C0.820157 12.7211 0.498047 12.399 0.498047 12.0017ZM20.9006 11.2822L22.7822 11.2822C23.1796 11.2822 23.5017 11.6043 23.5017 12.0017C23.5017 12.399 23.1796 12.7211 22.7822 12.7211L20.9006 12.7211C20.5032 12.7211 20.1811 12.399 20.1811 12.0017C20.1811 11.6043 20.5032 11.2822 20.9006 11.2822ZM12.7499 14.8531C12.7499 15.2673 12.4141 15.6031 11.9999 15.6031C11.5857 15.6031 11.2499 15.2673 11.2499 14.8531C11.2499 14.4389 11.5857 14.1031 11.9999 14.1031C12.4141 14.1031 12.7499 14.4389 12.7499 14.8531ZM3.79508 19.7L20.2047 19.7C20.5637 19.7 20.8547 19.991 20.8547 20.35C20.8547 20.7089 20.5637 21 20.2047 21L3.79508 21C3.43609 21 3.14508 20.7089 3.14508 20.35C3.14508 19.991 3.4361 19.7 3.79508 19.7Z"/></svg>

<svg xmlns="http://www.w3.org/2000/svg" fill="none" viewBox="0 0 24 24" focusable="false"><path fill="#74767B" fill-rule="evenodd" d="M12.71 1.21V3.1c0 .39-.32.72-.71.72-.4 0-.72-.33-.72-.72V1.21a.715.715 0 0 1 1.43 0M3.86 3.86c.28-.28.74-.28 1.02 0l1.33 1.33a.73.73 0 0 1 0 1.02c-.28.28-.74.28-1.02 0L3.86 4.88a.728.728 0 0 1 0-1.02M17.57 5.7c0-.18.07-.37.21-.51l1.33-1.33c.28-.28.74-.28 1.02 0a.73.73 0 0 1 0 1.02L18.8 6.21c-.28.28-.74.28-1.02 0a.7.7 0 0 1-.21-.51M5 12c0-3.87 3.13-7 7-7 3.86 0 7 3.13 7 7v5.7c0 .38-.32.7-.71.7H5.69a.7.7 0 0 1-.69-.7zm12.69 5.1V12c0-3.15-2.55-5.7-5.69-5.7-3.15 0-5.71 2.55-5.71 5.7v5.1zm-5.05-5.01c0 .36-.29.65-.64.65-.36 0-.65-.29-.65-.65V9.04c0-.36.29-.65.65-.65.35 0 .64.29.64.65zM.49 12c0-.4.33-.72.72-.72h1.88c.4 0 .72.32.72.72 0 .39-.32.72-.72.72H1.21A.73.73 0 0 1 .49 12m20.41-.72h1.88c.39 0 .72.32.72.72 0 .39-.33.72-.72.72H20.9c-.4 0-.72-.33-.72-.72 0-.4.32-.72.72-.72m-8.15 3.57a.749.749 0 1 1-1.5 0c0-.42.33-.75.75-.75.41 0 .75.33.75.75M3.79 19.7H20.2c.36 0 .65.29.65.64 0 .36-.29.66-.65.66H3.79c-.36 0-.65-.3-.65-.66 0-.35.29-.64.65-.64"/></svg>
